images/catalog/View-1.svg

<svg width="48" height="48" fill="none" xmlns="http://www.w3.org/2000/svg"><g clip-path="url(#a)" fill="#000"><path d="M20 17h-4v6h4v-6ZM32 17h-4v6h4v-6ZM26 17h-4v6h4v-6ZM20 25h-4v6h4v-6ZM32 25h-4v6h4v-6ZM26 25h-4v6h4v-6Z"/></g><rect x="1" y="1" width="46" height="46" rx="3" stroke="#000" stroke-width="2"/><defs><clipPath id="a"><path fill="#fff" transform="translate(16 17)" d="M0 0h16v14H0z"/></clipPath></defs></svg>

<svg width="160" height="48" viewBox="0 0 160 48" fill="none" xmlns="http://www.w3.org/2000/svg">
<g clip-path="url(#clip0_33548_2569)">
<path d="M20 17H16V23H20V17Z" fill="black"/>
<path d="M32 17H28V23H32V17Z" fill="black"/>
<path d="M26 17H22V23H26V17Z" fill="black"/>
<path d="M20 25H16V31H20V25Z" fill="black"/>
<path d="M32 25H28V31H32V25Z" fill="black"/>
<path d="M26 25H22V31H26V25Z" fill="black"/>
</g>
<rect x="1" y="1" width="46" height="46" rx="3" stroke="black" stroke-width="2"/>
<g clip-path="url(#clip1_33548_2569)">
<path d="M88 29H72V31H88V29Z" fill="black"/>
<path d="M86 19V25H74V19H86ZM88 17H72V27H88V17Z" fill="black"/>
</g>
<rect x="57" y="1" width="46" height="46" rx="3" stroke="#E5E5E5" stroke-width="2"/>
<g clip-path="url(#clip2_33548_2569)">
<path d="M130 17H128V19H130V17Z" fill="black"/>
<path d="M144 17H132V19H144V17Z" fill="black"/>
<path d="M130 21H128V23H130V21Z" fill="black"/>
<path d="M144 21H132V23H144V21Z" fill="black"/>
<path d="M130 25H128V27H130V25Z" fill="black"/>
<path d="M144 25H132V27H144V25Z" fill="black"/>
<path d="M130 29H128V31H130V29Z" fill="black"/>
<path d="M144 29H132V31H144V29Z" fill="black"/>
</g>
<rect x="113" y="1" width="46" height="46" rx="3" stroke="#E5E5E5" stroke-width="2"/>
<defs>
<clipPath id="clip0_33548_2569">
<rect width="16" height="14" fill="white" transform="translate(16 17)"/>
</clipPath>
<clipPath id="clip1_33548_2569">
<rect width="16" height="14" fill="white" transform="translate(72 17)"/>
</clipPath>
<clipPath id="clip2_33548_2569">
<rect width="16" height="14" fill="white" transform="translate(128 17)"/>
</clipPath>
</defs>
</svg>
